!!!OTL: ES JAGT EIN JAEGER GESCHWINDE DORT OBEN VOR DEM HOLZ
!!!ARE: Europa, Mitteleuropa, Deutschland
!!!SCT: Z0210
!!!YEM: Copyright 1995, estate of Helmut Schaffrath.
**kern
*ICvox
*Ivox
*M3/8
*k[b-]
*F:
{8c
=1
4f
8g
=2
8a
8f
8cc
=3
4.cc
=4
8b-
8a
8g
=5
4f}
{8g
=6
4a
8bn
=7
4cc
8bn
=8
4cc}
{8c
=9
4f
8g
=10
8a
8f
8cc
=11
4.cc
=12
8b-
8a
8g
=13
4f}
{8g
=14
4a
8bn
=15
4cc
8bn
=16
4cc}
{8b-
=17
4b-
8g
=18
8.a
16g
16a
16b-
=19
4cc
8b-
=20
8.cc
16b-}
{8cc
=21
4f
8f
=22
[4.g
=23
8g]
8e
8d
=24
4c}
{8c
=25
4f
8f
=26
4g
8f
=27
8.a
16g
8a
=28
4.f}
=29
{8.a
16b-
8cc
=30
8.a
16f
8g
=31
4.f}
=32
{4cc
8cc
=33
8.g
16a
8b-
=34
8cc
4a
=35
4g}
{8a
=36
4cc
8b-
=37
8.a
16b-
8g
=38
4f}
==
!!!AGN: Jaeger - Lied
!!!ONB: ESAC (Essen Associative Code) Database: ZUCCAL
!!!AMT: simple triple
!!!AIN: vox
!!!EED: Helmut Schaffrath
!!!EEV: 1.0
*-
